X:256
T:Gypsies Hornpipe TS.256
M:C
L:1/8
Q:1/2=84
S:Thomas Sands’ MS,1810,Lincolnshire
R:.hornpipe
O:England;Lincolnshire
Z:vmp.Ruairidh Greig, 2011
K:Bb
f>e|d>ec>d B>cA>B|G>AB>G F2FA|B2F>Bd2B>d|f>ed>ec2f>e|
d>ec>d B>cA>B|G>AB>GF2E>D|E>gf>e d>cB>A|B2B2B2:|
|:E>D|E2g2g2e>c|D2f2f2d>B|C2e2e2c>A|e>dc>B A>GF>D|
E2g2g2e>c|D2f2f2g>a|b>ag>f a>gf>=e|f2F2F2″D.C.”|]

